img/ico-quadcopters.svg

<svg width="132" height="69" viewBox="0 0 132 69" fill="none" xmlns="http://www.w3.org/2000/svg">
<path d="M12.0523 0.257888C6.50738 0.745188 1.83838 1.8507 0.575275 2.9303C-0.147425 3.5465 -0.147425 3.5465 0.342875 4.0865C0.987375 4.8062 4.05628 5.73148 7.59048 6.32278C11.5885 6.99078 20.1003 7.0162 21.3136 6.3741C22.5255 5.7061 22.9376 4.96045 22.9376 3.39265C22.9376 1.77395 22.3185 0.976664 20.7198 0.540164C19.274 0.154263 14.9415 -1.19209e-05 12.0523 0.257888Z" fill="#363636"/>
<path d="M25.7744 0.488258C25.645 0.771454 25.5161 2.59617 25.5161 4.60007C25.5161 8.66107 25.6714 8.37838 23.3242 8.53318L22.2934 8.61028L22.164 11.1547L22.0351 13.6986L20.8486 13.9818C18.2695 14.6498 16.8496 16.577 17.0571 19.2762C17.185 21.2034 18.0879 22.617 19.6357 23.3631C20.7446 23.8763 21.1054 23.9012 30.8818 23.9012C36.4267 23.9012 41.019 23.9798 41.0703 24.0819C41.1211 24.2103 39.9609 33.4891 38.4907 44.7206C37.0459 55.9511 35.8076 65.7177 35.7822 66.3866C35.7309 68.0038 36.6084 69.0077 38.1299 69.0077C39.3672 69.0077 40.1416 68.3661 40.4512 67.1063C40.5806 66.5926 41.9468 56.7733 43.4693 45.285C44.9913 33.8221 46.3321 24.4163 46.4097 24.4163C46.5127 24.4163 47.4927 25.8294 48.6021 27.552C51.542 32.178 51.001 31.8689 56.2374 31.8689H60.5958V34.6711V37.4987L55.463 37.5758C50.7428 37.6529 50.253 37.7028 49.5817 38.191C48.0089 39.3482 47.9567 39.606 47.9567 49.1676C47.9567 58.7018 47.9831 58.9596 49.4792 60.2174L50.3303 60.9127H66.0129H81.6955L82.5461 60.2174C84.0422 58.9596 84.0666 58.7018 84.0666 49.1676C84.0666 39.6061 84.0158 39.3483 82.4436 38.191C81.7727 37.7027 81.2825 37.6529 76.5618 37.5758L71.43 37.4987V34.6711V31.8689H75.7894C81.0238 31.8689 80.4828 32.178 83.4232 27.552C84.5336 25.8293 85.513 24.4163 85.6166 24.4163C85.6928 24.4163 87.0355 33.8221 88.5561 45.285C90.0786 56.7733 91.4457 66.5926 91.5747 67.1063C91.8843 68.3661 92.6567 69.0077 93.896 69.0077C95.4175 69.0077 96.2954 68.0038 96.2427 66.3866C96.2173 65.7177 94.979 55.9511 93.5337 44.7206C92.0649 33.4892 90.9028 24.2103 90.9556 24.0819C91.0064 23.9798 95.5972 23.9012 101.145 23.9012C110.92 23.9012 111.281 23.8763 112.389 23.3631C113.937 22.617 114.839 21.2034 114.968 19.2762C115.175 16.577 113.757 14.6497 111.177 13.9818L109.99 13.6986L109.863 11.1547L109.734 8.61028L108.702 8.53318C106.355 8.37838 106.508 8.66107 106.508 4.60007C106.508 2.59617 106.38 0.771454 106.251 0.488258C106.045 0.128357 105.708 -2.28882e-05 104.884 -2.28882e-05C104.265 -2.28882e-05 103.646 0.128365 103.464 0.308571C103.258 0.514168 103.155 1.7739 103.155 4.2407C103.155 6.708 103.052 7.96778 102.845 8.17278C102.665 8.35248 101.944 8.48088 101.196 8.48088C99.5698 8.48088 99.5444 8.53308 99.5444 11.5913V13.8784H66.0127H32.4805V11.5913C32.4805 8.53318 32.4556 8.48088 30.8306 8.48088C30.0821 8.48088 29.3604 8.35248 29.1802 8.17278C28.9727 7.96768 28.8701 6.708 28.8701 4.2407C28.8701 1.7739 28.7671 0.514069 28.5605 0.308571C28.3798 0.128365 27.7602 -2.28882e-05 27.1416 -2.28882e-05C26.3169 -2.28882e-05 25.9814 0.128456 25.7744 0.488258ZM68.6172 40.6084C71.5059 41.5068 74.0088 44.001 74.7832 46.7764C75.2217 48.3194 75.0928 50.9922 74.499 52.5596C73.8027 54.4346 71.8144 56.5694 69.9336 57.4951C68.6436 58.1367 68.1797 58.2139 66.0127 58.2139C63.8462 58.2139 63.3818 58.1368 62.0923 57.4951C60.208 56.5693 58.2232 54.4346 57.5264 52.5596C56.9336 50.9922 56.8037 48.3194 57.2427 46.7764C57.9907 44.0528 60.4922 41.5069 63.3042 40.6084C65.3164 39.9659 66.6045 39.9659 68.6172 40.6084Z" fill="#363636"/>
<path d="M63.7941 44.4375C61.7575 45.3633 60.2873 48.0869 60.7253 50.168C61.4992 53.8448 65.5485 55.7207 68.7209 53.8701C70.7063 52.7119 71.7121 50.3232 71.1721 48.0869C70.6037 45.6963 68.4377 43.9492 66.0129 43.9492C65.3674 43.9493 64.3874 44.1807 63.7941 44.4375Z" fill="#363636"/>
<path d="M36.0918 0.154258C32.1714 0.822258 31.5786 1.28516 31.5786 3.59806C31.5786 5.42276 32.0425 6.01407 33.8467 6.55367C35.3965 7.01607 41.0191 7.06784 44.3467 6.68204C51.2075 5.85974 55.6685 4.13764 54.0454 2.93004C52.7803 2.03014 49.1431 1.05355 44.9912 0.539951C42.5156 0.231951 36.9951 -4.19617e-05 36.0918 0.154258Z" fill="#363636"/>
<path d="M89.4844 0.257861C83.1651 0.848161 77.6201 2.33895 77.6201 3.44385C77.6201 5.16605 85.4609 6.91355 93.25 6.93945C99.0537 6.93945 100.446 6.29734 100.446 3.59814C100.446 1.77394 99.8272 0.97656 98.0733 0.51416C96.4238 0.10256 92.3984 -3.86238e-05 89.4844 0.257861Z" fill="#363636"/>
<path d="M112.777 0.283252C110.996 0.514252 109.758 1.05377 109.346 1.77397C108.959 2.54447 109.036 4.67775 109.5 5.34575C110.428 6.65675 111.152 6.81104 116.569 6.81104C120.23 6.81104 122.37 6.68215 124.435 6.32275C127.969 5.73145 131.038 4.80617 131.683 4.08647C132.173 3.54647 132.173 3.54647 131.45 2.93027C130.11 1.79937 125.492 0.745161 119.534 0.257861C116.053 -0.0253386 115.046 -0.0253482 112.777 0.283252Z" fill="#363636"/>
</svg>

<svg width="132" height="69" fill="none" xmlns="http://www.w3.org/2000/svg"><path d="M12.052.258C6.507.745 1.838 1.85.575 2.93c-.722.616-.722.616-.232 1.156.644.72 3.713 1.645 7.247 2.237 3.998.668 12.51.693 13.724.051 1.212-.668 1.624-1.414 1.624-2.981 0-1.619-.62-2.416-2.218-2.853C19.274.154 14.942 0 12.052.258zM25.774.488c-.129.283-.258 2.108-.258 4.112 0 4.061.155 3.778-2.192 3.933l-1.03.077-.13 2.545-.129 2.544-1.186.283c-2.58.668-4 2.595-3.792 5.294.128 1.927 1.03 3.341 2.579 4.087 1.109.513 1.47.538 11.246.538 5.545 0 10.137.079 10.188.18.051.13-1.11 9.408-2.58 20.64-1.444 11.23-2.682 20.997-2.708 21.666-.051 1.617.826 2.62 2.348 2.62 1.237 0 2.012-.64 2.321-1.9.13-.514 1.496-10.334 3.018-21.822 1.522-11.463 2.863-20.869 2.94-20.869.104 0 1.084 1.413 2.193 3.136 2.94 4.626 2.399 4.317 7.635 4.317h4.359v5.63l-5.133.077c-4.72.077-5.21.127-5.881.615-1.573 1.157-1.625 1.415-1.625 10.977 0 9.534.026 9.792 1.522 11.05l.851.695H81.695l.851-.696c1.496-1.257 1.52-1.515 1.52-11.05 0-9.56-.05-9.819-1.622-10.976-.671-.488-1.162-.538-5.882-.615l-5.132-.077v-5.63h4.36c5.234 0 4.693.309 7.633-4.317 1.11-1.723 2.09-3.136 2.194-3.136.076 0 1.418 9.406 2.94 20.869 1.522 11.488 2.889 21.308 3.018 21.821.31 1.26 1.082 1.902 2.321 1.902 1.522 0 2.4-1.004 2.347-2.621-.026-.67-1.264-10.436-2.71-21.666-1.468-11.232-2.63-20.51-2.577-20.64.05-.101 4.641-.18 10.189-.18 9.775 0 10.136-.025 11.244-.538 1.548-.746 2.45-2.16 2.579-4.087.207-2.699-1.211-4.626-3.791-5.294l-1.187-.283-.127-2.544-.129-2.545-1.032-.077c-2.347-.155-2.194.128-2.194-3.933 0-2.004-.128-3.829-.257-4.112-.206-.36-.543-.488-1.367-.488-.619 0-1.238.128-1.42.309-.206.205-.309 1.465-.309 3.932 0 2.467-.103 3.727-.31 3.932-.18.18-.901.308-1.649.308-1.626 0-1.652.052-1.652 3.11v2.287H32.48v-2.287c0-3.058-.024-3.11-1.65-3.11-.748 0-1.47-.129-1.65-.308-.207-.205-.31-1.465-.31-3.932 0-2.467-.103-3.727-.31-3.932-.18-.18-.8-.309-1.418-.309-.825 0-1.16.128-1.368.488zm42.843 40.12c2.889.899 5.392 3.393 6.166 6.168.439 1.543.31 4.216-.284 5.784-.696 1.875-2.685 4.01-4.565 4.935-1.29.642-1.754.719-3.921.719s-2.631-.077-3.92-.719c-1.885-.926-3.87-3.06-4.567-4.935-.592-1.568-.722-4.24-.283-5.784.748-2.723 3.25-5.27 6.061-6.168 2.012-.642 3.3-.642 5.313 0z" fill="#363636"/><path d="M63.794 44.438c-2.036.925-3.507 3.649-3.069 5.73.774 3.677 4.824 5.553 7.996 3.702 1.985-1.158 2.991-3.547 2.451-5.783-.568-2.39-2.734-4.138-5.16-4.138-.645 0-1.625.232-2.218.489zM36.092.154c-3.92.668-4.513 1.131-4.513 3.444 0 1.825.463 2.416 2.268 2.956 1.55.462 7.172.514 10.5.128 6.86-.822 11.322-2.544 9.698-3.752-1.265-.9-4.902-1.876-9.054-2.39-2.475-.308-7.996-.54-8.9-.386zM89.484.258C83.165.848 77.62 2.339 77.62 3.444c0 1.722 7.84 3.47 15.63 3.495 5.804 0 7.196-.642 7.196-3.34 0-1.825-.619-2.622-2.373-3.085C96.423.103 92.398 0 89.484.258zM112.777.283c-1.781.231-3.019.77-3.431 1.491-.387.77-.31 2.904.154 3.572.928 1.31 1.652 1.465 7.069 1.465 3.661 0 5.801-.129 7.866-.488 3.534-.592 6.603-1.517 7.248-2.237.49-.54.49-.54-.233-1.156-1.34-1.13-5.958-2.185-11.916-2.672-3.481-.283-4.488-.283-6.757.025z" fill="#363636"/></svg>
